assets/icons/24px/stroke/ribbon-24px.svg

<svg width="24" height="24" viewBox="0 0 24 24" fill="none" xmlns="http://www.w3.org/2000/svg">
<path fill-rule="evenodd" clip-rule="evenodd" d="M9.93417 2C9.95604 2 9.97799 2 10 2L14.0658 2C14.9523 1.99995 15.7161 1.99991 16.3278 2.08215C16.9833 2.17028 17.6117 2.36902 18.1213 2.87868C18.631 3.38835 18.8297 4.0167 18.9179 4.67221C19.0001 5.28387 19.0001 6.04769 19 6.93417V15.3054C19 16.9648 19.0001 18.317 18.8673 19.2944C18.7418 20.2185 18.4372 21.318 17.3518 21.7113C16.2664 22.1047 15.3282 21.4556 14.6398 20.8265C13.9156 20.1647 13.055 19.1344 12 17.8699C10.945 19.1344 10.0844 20.1647 9.36025 20.8265C8.67185 21.4556 7.73361 22.1047 6.64822 21.7113C5.56283 21.318 5.25826 20.2185 5.13272 19.2944C4.99994 18.317 4.99997 16.9648 5 15.3054L5 7C5 6.97799 5 6.95604 5 6.93417C4.99995 6.04769 4.99991 5.28387 5.08215 4.67221C5.17028 4.0167 5.36902 3.38835 5.87868 2.87868C6.38835 2.36902 7.0167 2.17028 7.67221 2.08215C8.28387 1.99991 9.04769 1.99995 9.93417 2ZM7.93871 4.06431C7.50497 4.12263 7.36902 4.21677 7.2929 4.2929C7.21677 4.36902 7.12263 4.50497 7.06431 4.93871C7.00213 5.40121 7 6.02893 7 7L7 15.2218C7 16.9848 7.0023 18.1991 7.11452 19.0252C7.17011 19.4345 7.24292 19.6602 7.30389 19.7772C7.31539 19.7992 7.32498 19.8144 7.33201 19.8245C7.34384 19.8213 7.36095 19.8157 7.38391 19.8062C7.50564 19.7554 7.70618 19.6287 8.01105 19.3501C8.62647 18.7877 9.40618 17.8568 10.5357 16.5031L11.2322 15.6683C11.4222 15.4406 11.7034 15.309 12 15.309C12.2966 15.309 12.5778 15.4406 12.7678 15.6683L13.4644 16.5031C14.5938 17.8568 15.3735 18.7877 15.989 19.3501C16.2938 19.6287 16.4944 19.7554 16.6161 19.8062C16.6391 19.8157 16.6562 19.8213 16.668 19.8245C16.675 19.8144 16.6846 19.7992 16.6961 19.7772C16.7571 19.6602 16.8299 19.4345 16.8855 19.0252C16.9977 18.1991 17 16.9848 17 15.2218V7C17 6.02893 16.9979 5.40121 16.9357 4.93871C16.8774 4.50497 16.7832 4.36902 16.7071 4.2929C16.631 4.21677 16.495 4.12263 16.0613 4.06431C15.5988 4.00213 14.9711 4 14 4H10C9.02893 4 8.40121 4.00213 7.93871 4.06431Z" fill="white"/>
</svg>

<svg width="24" height="24" fill="none" xmlns="http://www.w3.org/2000/svg"><path fill-rule="evenodd" clip-rule="evenodd" d="M9.934 2h4.132c.886 0 1.65 0 2.262.082.655.088 1.284.287 1.793.797.51.51.709 1.138.797 1.793C19 5.284 19 6.048 19 6.934v8.371c0 1.66 0 3.012-.133 3.99-.125.923-.43 2.023-1.515 2.416-1.086.394-2.024-.255-2.712-.884-.724-.662-1.585-1.693-2.64-2.957-1.055 1.264-1.916 2.295-2.64 2.956-.688.63-1.626 1.279-2.712.885-1.085-.393-1.39-1.492-1.515-2.417C5 18.317 5 16.964 5 15.305V7v-.066c0-.886 0-1.65.082-2.262.088-.655.287-1.284.797-1.793.51-.51 1.138-.709 1.793-.797C8.284 2 9.048 2 9.934 2zM7.94 4.064c-.434.059-.57.153-.646.229-.076.076-.17.212-.229.646C7.002 5.4 7 6.029 7 7v8.222c0 1.763.002 2.977.115 3.803.055.41.128.635.189.752a.438.438 0 0 0 .028.047.438.438 0 0 0 .052-.018c.122-.05.322-.177.627-.456.615-.562 1.395-1.493 2.525-2.847l.696-.835a1 1 0 0 1 1.536 0l.696.835c1.13 1.354 1.91 2.285 2.525 2.847.305.279.505.405.627.456.023.01.04.015.052.018a.444.444 0 0 0 .028-.047c.061-.117.134-.343.19-.752.112-.826.114-2.04.114-3.803V7c0-.971-.002-1.599-.064-2.061-.059-.434-.153-.57-.229-.646-.076-.076-.212-.17-.646-.229C15.6 4.002 14.971 4 14 4h-4c-.971 0-1.599.002-2.061.064z" fill="#fff"/></svg>
